static/logos/honda-wordmark-black.svg

<svg width="64" height="50" viewBox="0 0 64 50" fill="none" xmlns="http://www.w3.org/2000/svg">
<g clip-path="url(#clip0_1204_63)">
<path fill-rule="evenodd" clip-rule="evenodd" d="M29.8041 36.0811L14.168 37.7625L17.2548 40.7739H39.391L31.1843 35.9297L29.8041 36.0811ZM29.8041 23.6072L51.3383 17.8595C51.3383 17.8595 54.4756 17.6337 57.5877 10.5812L29.8041 19.692L8.19451 26.7442C8.19451 26.7442 6.33716 27.3465 5.60936 27.8485C5.60936 27.8485 5.10734 28.15 5.10734 28.8522C5.10734 28.8522 5.15747 29.3795 5.53399 29.7563L6.46267 30.685L18.2586 27.6227C18.2586 27.6227 17.5308 26.6688 18.9864 26.4683L29.8041 23.6072ZM29.8041 34.8509C29.829 35.1019 30.0299 35.3284 30.0299 35.3284L29.8041 35.353L13.415 37.2103L10.3025 34.2991L29.8038 30.8102L46.4685 27.8485C43.7332 33.22 38.2113 33.22 38.2113 33.22L31.3347 34.0982C30.1803 34.1235 29.8542 34.4243 29.8038 34.7261L29.8041 34.8509ZM29.8041 25.5645L52.518 19.8175C49.8326 25.8912 44.4365 26.0918 44.4365 26.0918L29.8041 29.0534L25.0103 30.0319C22.7011 30.0824 23.7051 31.2621 23.7051 31.2621L9.72549 33.6467L7.11543 31.3374L29.8041 25.5645ZM29.8041 13.2918L61.5534 0.315918C61.5534 0.315918 60.4737 3.5037 59.796 5.13494C59.796 5.13494 58.9679 7.7201 55.6553 8.74905L29.8041 17.8851L7.39134 25.7657C7.39134 25.7657 4.50537 26.795 4.02825 27.9999C4.02825 27.9999 3.35059 29.3798 5.18304 30.9364L16.0001 40.7746H11.7588L3.04977 32.2412C3.04977 32.2412 1.09215 30.6349 0.941406 28.3509V27.8741C0.96664 27.7237 0.96664 27.5733 1.01678 27.3973C1.01678 27.3973 1.39329 24.8872 5.1578 23.3565L29.8041 13.2918ZM6.71368 42.3806H1.09215V43.7612H2.37177V47.9523H1.09215V49.3831H6.71368V47.9523H5.33345V46.6223H9.47481V47.9523H8.11948V49.3831H13.6663V47.9523H12.3362V43.7612H13.6663V42.3806H8.09424V43.7612H9.47481V45.1411H5.33345V43.7612H6.71368V42.3806ZM56.082 45.6185H57.161L56.082 43.987L55.9561 43.8366L54.9776 45.6185H56.082ZM56.082 42.3806H58.3155L61.6786 47.9523H63.0591V49.3831H57.01V47.9523H58.3653L57.7882 47.1243H54.1243L53.6724 47.9523H55.0025V49.3831H50.3346V47.9523H51.7653L54.0739 43.7612H52.518V42.3806H56.082ZM45.3147 47.877C46.6448 47.7266 47.423 47.2245 47.423 45.9194C47.423 44.4136 46.5448 43.9368 45.3147 43.811C45.0889 43.7858 44.8628 43.7858 44.6124 43.7858H43.2067V47.9271H44.3362C44.6875 47.9271 45.0135 47.9022 45.3147 47.877ZM45.3147 42.3806H46.2181C48.5274 42.3806 50.2595 43.4597 50.2595 45.9194C50.2595 48.7552 48.628 49.3329 45.3147 49.3831H39.0152V47.9523H40.3705V43.7612H39.0152V42.3806H45.3147ZM19.5641 48.2034C20.8693 48.1781 21.8982 47.1495 21.8982 45.8941C21.8982 44.564 20.844 43.5603 19.5641 43.5603H19.5388C18.2589 43.5603 17.2299 44.564 17.2299 45.8696C17.2299 47.099 18.2087 48.2034 19.5139 48.2034H19.5641ZM19.5641 42.029H19.6394C22.9272 42.029 25.0857 43.2592 25.0857 45.7942C25.0857 48.128 23.1028 49.6839 19.5641 49.6839H19.4638C16.0253 49.6839 13.9671 48.3538 13.9671 45.8443C13.9671 43.4348 16.0001 42.029 19.5641 42.029ZM31.0841 42.3806H25.5376V43.7612H26.8677V47.9523H25.5376V49.3831H29.9548V47.9523H28.5743V44.3635L32.4646 49.3827H36.7564V43.7609H38.1615V42.3803H33.5935V43.7609H35.0242V47.45L31.0841 42.3806Z" fill="black"/>
</g>
<defs>
<clipPath id="clip0_1204_63">
<rect width="64" height="50" fill="white"/>
</clipPath>
</defs>
</svg>

<svg xmlns="http://www.w3.org/2000/svg" width="81.92" height="64" fill="none" viewBox="0 0 64 50"><g clip-path="url(#a)"><path fill="#000" fill-rule="evenodd" d="m29.804 36.081-15.636 1.681 3.087 3.012H39.39l-8.207-4.844zm0-12.474 21.534-5.747s3.138-.226 6.25-7.279l-27.784 9.111-21.61 7.052s-1.857.602-2.585 1.105c0 0-.502.301-.502 1.003 0 0 .05.527.427.904l.929.929 11.796-3.062s-.728-.954.727-1.155zm0 11.244c.025.25.226.477.226.477l-.226.025-16.389 1.857-3.112-2.91 19.5-3.49 16.665-2.961c-2.735 5.371-8.257 5.371-8.257 5.371l-6.876.878c-1.155.026-1.48.326-1.531.628zm0-9.286 22.714-5.748c-2.685 6.074-8.081 6.275-8.081 6.275l-14.633 2.961-4.794.979c-2.309.05-1.305 1.23-1.305 1.23l-13.98 2.385-2.61-2.31zm0-12.273L61.554.316s-1.08 3.188-1.758 4.819c0 0-.828 2.585-4.14 3.614l-25.852 9.136-22.413 7.88S4.505 26.796 4.028 28c0 0-.677 1.38 1.155 2.936L16 40.775H11.76l-8.71-8.534s-1.957-1.606-2.108-3.89v-.477c.026-.15.026-.3.076-.477 0 0 .376-2.51 4.14-4.04zM6.714 42.38H1.092v1.38h1.28v4.191h-1.28v1.431h5.622v-1.43h-1.38v-1.33h4.14v1.33H8.12v1.43h5.547v-1.43h-1.33V43.76h1.33v-1.38H8.094v1.38h1.38v1.38h-4.14v-1.38h1.38zm49.368 3.237h1.079l-1.079-1.631-.126-.15-.978 1.781zm0-3.237h2.233l3.364 5.571h1.38v1.431H57.01v-1.43h1.355l-.577-.829h-3.664l-.452.828h1.33v1.431h-4.667v-1.43h1.43l2.309-4.192h-1.556v-1.38zm-10.767 5.496c1.33-.15 2.108-.653 2.108-1.958 0-1.505-.878-1.982-2.108-2.108-.226-.025-.452-.025-.703-.025h-1.405v4.141h1.13c.35 0 .676-.025.978-.05m0-5.496h.903c2.31 0 4.041 1.079 4.041 3.538 0 2.836-1.631 3.414-4.944 3.464h-6.3v-1.43h1.355V43.76h-1.355v-1.38zm-25.75 5.822c1.304-.025 2.333-1.053 2.333-2.309a2.314 2.314 0 0 0-2.334-2.334h-.025a2.287 2.287 0 0 0-2.31 2.31c0 1.229.98 2.333 2.285 2.333zm0-6.174h.074c3.288 0 5.447 1.23 5.447 3.765 0 2.334-1.983 3.89-5.522 3.89h-.1c-3.439 0-5.497-1.33-5.497-3.84 0-2.41 2.033-3.815 5.597-3.815m11.52.352h-5.547v1.38h1.33v4.191h-1.33v1.431h4.417v-1.43h-1.38v-3.59l3.89 5.02h4.291V43.76h1.405v-1.38h-4.568v1.38h1.431v3.689z" clip-rule="evenodd"/></g><defs><clipPath id="a"><path fill="#fff" d="M0 0h64v50H0z"/></clipPath></defs></svg>
